X: 1
T: Mist-Covered Mountains Of Home, The
M: 3/4
L: 1/8
R: waltz
K: Ador
E2 |: &quot;Am&quot; A6 | A3 B cd | e2 A3 B | A2 G2 EF | &quot;G&quot; G6 |
G3 A B2 |B2 A3 B | &quot;G&quot; A2 G2 E2 |&quot;Am&quot; c6 | &quot;G&quot; d6 |
&quot;C&quot; e3 f g2 | &quot;G&quot; B2 A3 G |&quot;Am&quot; A3 c e2 | &quot;G&quot; d3 c B2 | &quot;Am&quot; A B3 &quot;G&quot; G2 | &quot;Am&quot; A6 :|
|: &quot;Am&quot; e4 Ae | e4 Ae | &quot;G&quot; d2 e2 g2 | e3 d BA | &quot;Em&quot; G4 G2 |
d4 B2 | &quot;Am&quot; e4 e2 | &quot;G&quot; d3 c B2 | &quot;Am&quot; c6 | &quot;G&quot; d6 |
&quot;C&quot; e3 f g2 | &quot;G&quot; B2 A3 G | &quot;Am&quot; A3 c e2 | &quot;G&quot; d3 c B2 | &quot;Am&quot; A B3 &quot;G&quot; G2 | &quot;Am&quot; A6 :|
